Sources/FrostedUI/Resources/Icons.xcassets/questionCircle16.imageset/question-circle-16.svg

<svg width="16" height="16" viewBox="0 0 16 16" fill="none" xmlns="http://www.w3.org/2000/svg" data-fui-icon="true">
  <path
    d="M8 0C12.4183 0 16 3.58172 16 8C16 12.4183 12.4183 16 8 16C3.58172 16 0 12.4183 0 8C0 3.58172 3.58172 0 8 0ZM8 1.5C4.41015 1.5 1.5 4.41015 1.5 8C1.5 11.5899 4.41015 14.5 8 14.5C11.5899 14.5 14.5 11.5899 14.5 8C14.5 4.41015 11.5899 1.5 8 1.5ZM8 11C8.55228 11 9 11.4477 9 12C9 12.5523 8.55228 13 8 13C7.44772 13 7 12.5523 7 12C7 11.4477 7.44772 11 8 11ZM8 3C9.65685 3 11 4.34315 11 6C11 7.31414 10.1551 8.42861 8.98145 8.83496C8.88928 8.8669 8.81813 8.91788 8.77832 8.96191C8.76028 8.98188 8.75343 8.99475 8.75098 9.00098L8.75 9.25C8.75 9.66421 8.41421 10 8 10C7.58579 10 7.25 9.66421 7.25 9.25V9C7.25 8.13562 7.94301 7.60777 8.49121 7.41797C9.0794 7.21425 9.5 6.65526 9.5 6C9.5 5.17157 8.82843 4.5 8 4.5C7.17157 4.5 6.5 5.17157 6.5 6V6.25C6.5 6.66421 6.16421 7 5.75 7C5.33579 7 5 6.66421 5 6.25V6C5 4.34315 6.34315 3 8 3Z"
    fill="currentColor"
  />
</svg>

<svg xmlns="http://www.w3.org/2000/svg" width="16" height="16" fill="none" data-fui-icon="true" viewBox="0 0 16 16"><path fill="currentColor" d="M8 0a8 8 0 1 1 0 16A8 8 0 0 1 8 0m0 1.5a6.5 6.5 0 1 0 0 13 6.5 6.5 0 0 0 0-13M8 11a1 1 0 1 1 0 2 1 1 0 0 1 0-2m0-8a3 3 0 0 1 .981 5.835.5.5 0 0 0-.203.127.1.1 0 0 0-.027.039l-.001.249a.75.75 0 0 1-1.5 0V9c0-.864.693-1.392 1.241-1.582A1.501 1.501 0 1 0 6.5 6v.25a.75.75 0 0 1-1.5 0V6a3 3 0 0 1 3-3"/></svg>
